src/images/single-assets/mkUSD.svg

<svg width="22" height="22" viewBox="0 0 22 22" fill="none" xmlns="http://www.w3.org/2000/svg">
<circle cx="11" cy="11" r="10.75" fill="white" stroke="#316EFF" stroke-width="0.5"/>
<path d="M18.1592 14.8289L11.8487 18.5705C11.5136 18.738 11.1227 18.738 10.8435 18.5705L4.53301 14.8847C4.42132 14.8289 4.36548 14.6614 4.42132 14.5497L5.53822 12.6509C5.59407 12.5393 5.7616 12.4834 5.87329 12.5393L10.7876 15.4432C11.1227 15.6107 11.5136 15.6107 11.7929 15.4432L16.7072 12.5393C16.8189 12.4834 16.9864 12.4834 17.0423 12.6509L18.1592 14.4938C18.3267 14.6055 18.2709 14.7731 18.1592 14.8289Z" fill="#316EFF"/>
<path d="M16.038 11.3086L11.8496 13.7658C11.5146 13.9333 11.1237 13.9333 10.8444 13.7658L6.65606 11.3086C6.54437 11.2527 6.48852 11.0852 6.54437 10.9735L7.66127 9.07478C7.71711 8.96309 7.88465 8.90724 7.99634 8.96309L10.7886 10.6384C11.1237 10.806 11.5146 10.806 11.8496 10.6384L14.6419 8.96309C14.7536 8.90724 14.9211 8.90724 14.977 9.07478L16.0939 10.9177C16.2055 11.0852 16.1497 11.2527 16.038 11.3086Z" fill="#316EFF"/>
<path d="M13.9717 7.79435L11.9054 9.02294C11.5704 9.19047 11.1795 9.19047 10.8444 9.02294L8.77813 7.79435C8.66644 7.7385 8.61059 7.51512 8.66644 7.40343L10.9002 3.55013C11.0678 3.21506 11.5145 3.21506 11.7379 3.55013L14.0276 7.40343C14.1392 7.57097 14.0834 7.7385 13.9717 7.79435Z" fill="#316EFF"/>
</svg>

<svg xmlns="http://www.w3.org/2000/svg" width="22" height="22" fill="none"><circle cx="11" cy="11" r="10.75" fill="#fff" stroke="#316EFF" stroke-width=".5"/><path fill="#316EFF" d="m18.16 14.829-6.311 3.741c-.335.168-.726.168-1.005 0l-6.311-3.685c-.112-.056-.168-.224-.112-.335l1.117-1.9a.27.27 0 0 1 .335-.11l4.915 2.903c.335.168.726.168 1.005 0l4.914-2.904c.112-.056.28-.056.335.112l1.117 1.843c.168.111.112.28 0 .335"/><path fill="#316EFF" d="m16.038 11.309-4.188 2.457c-.335.167-.726.167-1.006 0l-4.188-2.457a.27.27 0 0 1-.112-.335l1.117-1.9a.27.27 0 0 1 .335-.11l2.793 1.674c.335.168.726.168 1.06 0l2.793-1.675c.112-.056.28-.056.335.112l1.117 1.843c.111.167.056.335-.056.39"/><path fill="#316EFF" d="m13.972 7.794-2.067 1.229a1.18 1.18 0 0 1-1.06 0L8.777 7.794c-.112-.055-.167-.279-.112-.39L10.9 3.55c.168-.335.614-.335.838 0l2.29 3.853c.111.168.055.336-.056.391"/></svg>
